build/images/icons/Viber_icon.svg

<svg width="48" height="48" viewBox="0 0 48 48" fill="none" xmlns="http://www.w3.org/2000/svg">
<path d="M24 0C37.2548 0 48 10.7452 48 24C48 37.2548 37.2548 48 24 48C10.7452 48 0 37.2548 0 24C0 10.7452 10.7452 0 24 0Z" fill="#7F4DA0"/>
<path d="M30.3941 20.9584C30.2774 20.0101 29.9859 19.2655 29.4683 18.6059C28.7961 17.7566 27.9372 17.2481 26.6655 16.9464C25.8367 16.7453 25.5019 16.7684 25.2022 17.0422C24.923 17.2987 24.8685 17.8129 25.0818 18.146C25.2319 18.3877 25.405 18.4742 25.8864 18.5687C26.5275 18.6867 26.9706 18.8398 27.3736 19.0702C28.229 19.5642 28.6274 20.3371 28.6701 21.5885C28.69 22.176 28.7408 22.3566 28.946 22.565C29.3263 22.9459 30.0032 22.8719 30.2904 22.416C30.3957 22.2442 30.4118 22.1694 30.4229 21.7705C30.4303 21.5235 30.4196 21.1558 30.3941 20.9584V20.9584Z" fill="white"/>
<path d="M33.7446 22.0277C33.5757 19.1223 32.4393 16.7848 30.4055 15.1402C29.2596 14.216 27.8745 13.5806 26.3563 13.2716C25.8001 13.161 24.7762 13.0715 24.6005 13.1227C24.4347 13.1702 24.2003 13.3496 24.0958 13.512C23.9852 13.688 23.9603 14.081 24.0546 14.3083C24.2068 14.6883 24.4898 14.8226 25.2826 14.892C26.5047 14.9989 27.7652 15.4282 28.7176 16.0639C29.8049 16.7876 30.6693 17.7775 31.2284 18.9407C31.7116 19.9402 32.0087 21.3805 32.0005 22.6703C31.9977 23.1367 32.0698 23.4002 32.2573 23.5928C32.5405 23.8889 32.9533 23.9537 33.3176 23.757C33.7213 23.5447 33.8157 23.172 33.7446 22.0277V22.0277Z" fill="white"/>
<path d="M37.4522 33.2163C37.3954 33.0502 37.2628 32.7941 37.1681 32.647C36.5712 31.7457 33.3645 29.2362 31.7635 28.4155C30.8493 27.9459 30.172 27.7894 29.6699 27.9363C29.1299 28.0882 28.8457 28.3396 27.941 29.4639C27.5763 29.9146 27.2021 30.3368 27.1026 30.4032C26.8563 30.574 26.3731 30.7116 26.0321 30.7116C25.2411 30.7068 23.8059 30.1945 22.7022 29.5208C21.8449 28.999 20.746 28.0645 19.9028 27.1394C18.9081 26.0531 18.2308 25.0948 17.6955 24.0132C17.004 22.6233 16.8287 21.7741 17.1176 21.1526C17.1887 20.9961 17.2835 20.8301 17.326 20.7779C17.3687 20.7305 17.814 20.3652 18.3065 19.9667C19.2729 19.1982 19.4292 19.0227 19.6091 18.4961C19.8365 17.8272 19.775 17.1441 19.4244 16.4563C19.1544 15.9344 18.4487 14.7959 17.9371 14.0606C17.2598 13.0929 15.5735 11.0246 15.2371 10.7446C14.6309 10.2513 13.8541 10.1659 12.9967 10.498C12.0921 10.849 10.3963 12.2153 9.67155 13.1688C9.01789 14.0322 8.76692 14.6441 8.72899 15.4505C8.69586 16.1147 8.75268 16.3898 9.1032 17.239C11.8457 23.8993 15.9382 29.2172 21.5607 33.4393C24.4974 35.6451 27.5431 37.3245 30.7025 38.4726C32.545 39.1414 33.3455 39.1746 34.2881 38.6244C34.686 38.3871 35.6712 37.3767 36.2207 36.6414C37.1301 35.4174 37.4665 34.853 37.5612 34.4023C37.6275 34.0939 37.5754 33.5579 37.4522 33.2163V33.2163Z" fill="white"/>
<path d="M37.1555 22.6949C37.0948 21.0515 36.8181 19.7035 36.2411 18.2005C35.6715 16.7222 35.095 15.7574 34.0062 14.4526C32.9769 13.2292 32.1773 12.5306 30.9093 11.7531C29.1402 10.6697 26.9872 9.95272 24.5744 9.6512C23.7516 9.54582 23.5654 9.55335 23.313 9.72179C22.8238 10.0409 22.8303 10.8367 23.321 11.151C23.4835 11.251 23.6276 11.2875 24.2858 11.3736C25.2962 11.5096 25.9459 11.6378 26.7168 11.8482C29.7398 12.6745 32.0645 14.3637 33.6187 16.8712C34.9193 18.9611 35.4592 21.0513 35.3826 23.7208C35.3559 24.6232 35.3753 24.782 35.5132 24.9989C35.7774 25.403 36.4741 25.483 36.8315 25.1476C37.0539 24.9432 37.0958 24.7898 37.1396 24.0174C37.1606 23.6144 37.1651 23.0196 37.1555 22.6949V22.6949Z" fill="white"/>
</svg>

<svg width="48" height="48" fill="none" xmlns="http://www.w3.org/2000/svg"><path d="M24 0c13.255 0 24 10.745 24 24S37.255 48 24 48 0 37.255 0 24 10.745 0 24 0z" fill="#7F4DA0"/><path d="M30.394 20.958c-.117-.948-.408-1.692-.926-2.352-.672-.85-1.53-1.358-2.802-1.66-.83-.2-1.164-.178-1.464.096-.279.257-.334.77-.12 1.104.15.242.323.328.804.423.642.118 1.085.27 1.488.501.855.494 1.253 1.267 1.296 2.518.02.588.07.769.276.977.38.38 1.057.307 1.344-.149.106-.172.122-.247.133-.646a6.349 6.349 0 00-.029-.812z" fill="#fff"/><path d="M33.745 22.028c-.17-2.906-1.306-5.243-3.34-6.888-1.145-.924-2.53-1.56-4.049-1.868-.556-.111-1.58-.2-1.756-.15-.165.048-.4.228-.504.39-.11.176-.136.569-.041.796.152.38.435.515 1.228.584 1.222.107 2.482.536 3.435 1.172a7.204 7.204 0 012.51 2.877c.484 1 .78 2.44.773 3.73-.003.466.069.73.256.922a.862.862 0 001.06.164c.404-.212.499-.585.428-1.73zm3.707 11.188a3.19 3.19 0 00-.284-.569c-.597-.901-3.803-3.41-5.404-4.231-.915-.47-1.592-.627-2.094-.48-.54.152-.824.404-1.729 1.528-.365.45-.739.873-.838.94-.247.17-.73.308-1.07.308-.792-.005-2.227-.517-3.33-1.191-.858-.522-1.957-1.457-2.8-2.382-.995-1.086-1.672-2.044-2.207-3.126-.692-1.39-.867-2.239-.578-2.86.07-.157.166-.323.208-.375.043-.047.488-.413.98-.811.967-.769 1.123-.944 1.303-1.47.227-.67.166-1.353-.185-2.04-.27-.523-.975-1.661-1.487-2.396-.677-.968-2.364-3.036-2.7-3.316-.606-.494-1.383-.58-2.24-.247-.905.351-2.6 1.717-3.325 2.67-.654.864-.905 1.476-.943 2.283-.033.664.024.939.374 1.788 2.743 6.66 6.835 11.978 12.458 16.2 2.936 2.206 5.982 3.886 9.142 5.034 1.842.668 2.643.702 3.585.151.398-.237 1.383-1.247 1.933-1.983.91-1.224 1.246-1.788 1.34-2.239.066-.308.014-.844-.109-1.186z" fill="#fff"/><path d="M37.156 22.695c-.061-1.643-.338-2.992-.915-4.494-.57-1.479-1.146-2.444-2.235-3.748-1.03-1.224-1.829-1.922-3.097-2.7-1.769-1.083-3.922-1.8-6.335-2.102-.822-.105-1.009-.098-1.261.07-.49.32-.483 1.116.008 1.43.162.1.307.136.965.223 1.01.136 1.66.264 2.43.474 3.024.826 5.349 2.516 6.903 5.023 1.3 2.09 1.84 4.18 1.764 6.85-.027.902-.008 1.061.13 1.278.264.404.961.484 1.319.149.222-.205.264-.358.308-1.13.02-.404.025-.998.016-1.323z" fill="#fff"/></svg>
